_icons/SVG/604-eelektross-shiny.svg

<svg xmlns="http://www.w3.org/2000/svg" viewBox="0 0 32 32"><title>604-eelektross-shiny</title><path d="M12.83368,19.15944c-2.11019-2.90953-3.58684-5.5057-1.25676-7.62588,6.05535-4.532-7.21692-6.81707-2.43738,0C9.152,15.66,10.468,17.87171,12.13413,19.56922,12.7849,19.69472,12.87628,19.46917,12.83368,19.15944Z" style="fill:#338c5d"/><path d="M14.43969,21.42623c-.155-.05225-.31421-.11279-.47919-.18433a1.8872,1.8872,0,0,1-.48864,1.48242C11.186,25.33858,14.698,27.08834,16,24.92257V22.02633Z" style="fill:#bad3c1"/><path d="M17.05175,22.43087,16,22.02633v2.89624a3.10279,3.10279,0,0,0,.38868-1.08606A2.33474,2.33474,0,0,1,17.05175,22.43087Z" style="fill:#bad3c1"/><path d="M12.862,14.37081a8.33159,8.33159,0,0,0-3.39862-.37988C11.59673,9.92623,13.78362,8.25545,16,7.89705V7.23739c-2.66772-.0116-5.74725.83313-8.7572,6.73767-2.49756.42309-4.081.97729-4.46722,1.70214l2.512,7.669a7.43928,7.43928,0,0,0,3.97339-3.198,1.28458,1.28458,0,0,1,.64709-.47558l-.001-.00415C12.79406,17.132,13.87829,19.9692,16,21.427V17.01009A6.95129,6.95129,0,0,0,12.862,14.37081Z" style="fill:#349363"/><path d="M19.7871,8.35567a7.82958,7.82958,0,0,0,4.82776.67285c2.58338,2.2583,2.73493-2.635.15833-.67285-3.03675.65479-5.23969-1.06836-7.55829-1.06836-.3935-.02746-.79962-.04809-1.21491-.04992v.65966A7.64465,7.64465,0,0,1,19.7871,8.35567Z" style="fill:#338c5d"/><path d="M19.86211,21.90621l.55817-.2146c4.68286-5.3418,8.59979-7.23926,11.63416-5.16943-.22907-.55152-.37427-1.13379-1.7016-1.281-3.92121-.94434-7.07324.78931-10.78723,3.41772-1.52369,1.219-1.963.57789-2.42981.00171A14.61235,14.61235,0,0,1,16,17.01009V21.427A4.03507,4.03507,0,0,0,19.86211,21.90621Z" style="fill:#338c5d"/><path d="M9.9071,19.66842l.001.00415a2.09283,2.09283,0,0,1,2.24164.47558A6.77326,6.77326,0,0,0,16,22.99349V21.427C13.87829,19.9692,12.79406,17.132,9.9071,19.66842Z" style="fill:#c8dac8"/><path d="M19.86211,21.90621A4.03507,4.03507,0,0,1,16,21.427v1.56653a4.19717,4.19717,0,0,0,.81922.08313Z" style="fill:#bad3c1"/><path d="M20.42028,21.69161c-.19214.08325-.37768.15381-.55817.2146l-3.0429,1.17041a2.7193,2.7193,0,0,1,.77246,1.63745c.74432,4.32593,6.41821,2.15869,3.39789-1.29565A2.19829,2.19829,0,0,1,20.42028,21.69161Z" style="fill:#bad3c1"/><path d="M28.21594,13.97506c-.14673-1.364-1.13849-1.34888-3.16578.356-.70044-1.999-1.99884-.85742-3.52191,1.46436-.71991-1.167-1.5924-1.28955-2.80957.948-.3435.939-.74408,1.91723-1.58288,1.91723.46685.57618.90612,1.21729,2.42981-.00171,3.714-2.62841,6.866-4.36206,10.78723-3.41772C31.49065,14.31539,30.40417,13.99532,28.21594,13.97506Z" style="fill:#c8dac8"/><path d="M9.46337,13.99093a8.33159,8.33159,0,0,1,3.39862.37988l.23175-.074c.39936-.19409.71564-.801.83673-2.37964.76734.207,1.48108-.213,2.06952-2.0957V7.89705C13.78362,8.25545,11.59673,9.92623,9.46337,13.99093Z" style="fill:#d5e1cf"/><path d="M19.7871,8.35567A7.64465,7.64465,0,0,0,16,7.89705V9.82149c.0091-.02905.01874-.051.02777-.08081C17.71447,10.15352,19.0512,9.86055,19.7871,8.35567Z" style="fill:#f4dfa2"/><path d="M6.19372,17.21342c.3817-1.22352,4.008-1.62114,6.21994-.691.45813.07092.38545.93017-.07268.85925-.74012-.17505-2.171-.85951-1.91769,0,.24536,1.24658-2.27026,1.74182-2.51563.49524C7.50586,16.17551,5.05255,19.06754,6.19372,17.21342Z" style="fill:#aadb3d"/><ellipse cx="4.39769" cy="19.35999" rx="3.04704" ry="4.08419" transform="translate(-4.11263 1.42334) rotate(-12.58496)" style="fill:#cb6278"/><ellipse cx="4.23657" cy="19.42895" rx="1.64073" ry="2.21456" transform="translate(-5.42974 2.05094) rotate(-16.78343)" style="fill:#2b3332"/><path d="M3.63755,18.84236l2.09731-2.2952c.43642-.24463,1.34657,1.37781.91016,1.62244Z" style="fill:#dadddc"/><path d="M3.63755,23.34454l1.90056-2.07989c.39548-.22168,1.22026,1.24856.82478,1.47024Z" style="fill:#dadddc"/><path d="M-.05444,21.95723l1.90057-2.07988c.39548-.22168,1.22025,1.24855.82477,1.47023Z" style="fill:#dadddc"/><path d="M.36149,18.19789,2.26206,16.118c.39547-.22168,1.22025,1.24855.82477,1.47024Z" style="fill:#dadddc"/><ellipse cx="9.16789" cy="17.35311" rx="0.87477" ry="0.74753" style="fill:#db7383"/><circle cx="8.983" cy="17.1914" r="0.32538" style="fill:#2b3332"/><circle cx="13.71381" cy="17.26525" r="0.52192" style="fill:#aadb3d"/><circle cx="15.09114" cy="17.85734" r="0.34056" style="fill:#aadb3d"/><path d="M16,10.33907V6.698C14.79754,7.3962,14.26836,8.70845,16,10.33907Z" style="fill:#379b6d"/><path d="M15.28143,19.35665c-.04578.333.05328.57519.71856.46191v-1.4823Q15.65576,18.84073,15.28143,19.35665Z" style="fill:#379b6d"/><path d="M19.37408,10.90816C22.67217,6.20394,18.21258,5.413,16,6.698v3.64111a7.67806,7.67806,0,0,0,.67377.56909c2.3056,2.0979,1.24439,4.61719-.67377,7.4281v1.4823c.02-.00342.03546-.0039.05646-.00805C17.90234,17.92989,19.36028,15.47969,19.37408,10.90816Z" style="fill:#349363"/><circle cx="17.83337" cy="8.66463" r="1.62393" style="fill:#c95c73"/><path d="M16.85424,7.36837c.12225.38537,1.55512-.06983,1.43286-.4552l-1.47375-2.035Z" style="fill:#d1d4d4"/><polygon points="15.078 11.424 16 10.947 16 9.667 15.078 11.424" style="fill:#dadddc"/><path d="M16.24523,9.19918,16,9.66671v1.28064L17.29022,10.28C17.581,9.999,16.536,8.91817,16.24523,9.19918Z" style="fill:#d1d4d4"/><path d="M19.14257,9.76632l2.51117-.08594L19.56518,8.32357C19.17724,8.20968,18.75457,9.65255,19.14257,9.76632Z" style="fill:#d1d4d4"/><circle cx="17.83337" cy="8.66463" r="0.94839" style="fill:#a2d336"/></svg>

<svg xmlns="http://www.w3.org/2000/svg" viewBox="0 0 32 32"><path d="M12.834 19.16c-2.11-2.91-3.587-5.506-1.257-7.626 6.055-4.532-7.217-6.818-2.437 0 .012 4.126 1.328 6.338 2.994 8.035.65.126.742-.1.7-.41z" fill="#338c5d"/><path d="M14.44 21.426a6.092 6.092 0 01-.48-.184 1.887 1.887 0 01-.488 1.482c-2.286 2.615 1.226 4.364 2.528 2.199v-2.897zm2.612 1.004L16 22.027v2.897a3.103 3.103 0 00.389-1.086 2.335 2.335 0 01.663-1.406z" fill="#bad3c1"/><path d="M12.862 14.37a8.332 8.332 0 00-3.399-.38c2.134-4.064 4.32-5.735 6.537-6.093v-.66c-2.668-.011-5.747.834-8.757 6.738-2.498.423-4.081.977-4.467 1.702l2.512 7.67a7.44 7.44 0 003.973-3.199 1.285 1.285 0 01.647-.475v-.005c2.886-2.536 3.97.301 6.092 1.759V17.01a6.951 6.951 0 00-3.138-2.64z" fill="#349363"/><path d="M19.787 8.356a7.83 7.83 0 004.828.673c2.583 2.258 2.735-2.635.158-.673-3.037.654-5.24-1.069-7.558-1.069-.394-.027-.8-.048-1.215-.05v.66a7.645 7.645 0 013.787.459zm.075 13.55l.558-.214c4.683-5.342 8.6-7.24 11.634-5.17-.229-.551-.374-1.134-1.701-1.28-3.921-.945-7.073.788-10.787 3.417-1.524 1.219-1.963.578-2.43.002A14.612 14.612 0 0116 17.01v4.416a4.035 4.035 0 003.862.48z" fill="#338c5d"/><path d="M9.907 19.668l.001.005a2.093 2.093 0 012.242.475A6.773 6.773 0 0016 22.993v-1.566c-2.122-1.458-3.206-4.295-6.093-1.759z" fill="#c8dac8"/><path d="M19.862 21.906A4.035 4.035 0 0116 21.427v1.567a4.197 4.197 0 00.82.083z" fill="#bad3c1"/><path d="M20.42 21.692a7.102 7.102 0 01-.558.214l-3.043 1.17a2.72 2.72 0 01.773 1.638c.744 4.326 6.418 2.159 3.398-1.296a2.198 2.198 0 01-.57-1.726z" fill="#bad3c1"/><path d="M28.216 13.975c-.147-1.364-1.139-1.349-3.166.356-.7-1.999-1.999-.857-3.522 1.464-.72-1.167-1.592-1.29-2.81.948-.343.94-.743 1.918-1.582 1.918.467.576.906 1.217 2.43-.002 3.714-2.628 6.866-4.362 10.787-3.418 1.138-.926.051-1.246-2.137-1.266z" fill="#c8dac8"/><path d="M9.463 13.99a8.332 8.332 0 013.399.38l.232-.073c.4-.194.715-.801.836-2.38.768.207 1.482-.213 2.07-2.096V7.897c-2.216.358-4.403 2.03-6.537 6.094z" fill="#d5e1cf"/><path d="M19.787 8.356A7.645 7.645 0 0016 7.897v1.924c.01-.029.019-.05.028-.08 1.686.413 3.023.12 3.76-1.385z" fill="#f4dfa2"/><path d="M6.194 17.213c.381-1.223 4.008-1.62 6.22-.69.458.07.385.93-.073.859-.74-.175-2.171-.86-1.918 0 .246 1.246-2.27 1.741-2.515.495-.402-1.701-2.855 1.19-1.714-.664z" fill="#aadb3d"/><ellipse cx="4.398" cy="19.36" rx="3.047" ry="4.084" transform="rotate(-12.585 4.398 19.36)" fill="#cb6278"/><ellipse cx="4.237" cy="19.429" rx="1.641" ry="2.215" transform="rotate(-16.783 4.237 19.429)" fill="#2b3332"/><path d="M3.638 18.842l2.097-2.295c.436-.244 1.346 1.378.91 1.623zm0 4.503l1.9-2.08c.396-.222 1.22 1.248.825 1.47zm-3.692-1.388l1.9-2.08c.396-.221 1.22 1.249.825 1.47zm.415-3.759l1.901-2.08c.396-.222 1.22 1.249.825 1.47z" fill="#dadddc"/><ellipse cx="9.168" cy="17.353" rx=".875" ry=".748" fill="#db7383"/><circle cx="8.983" cy="17.191" r=".325" fill="#2b3332"/><circle cx="13.714" cy="17.265" r=".522" fill="#aadb3d"/><circle cx="15.091" cy="17.857" r=".341" fill="#aadb3d"/><path d="M16 10.34V6.697c-1.202.698-1.732 2.01 0 3.641zm-.719 9.017c-.045.333.054.575.719.462v-1.483q-.344.505-.719 1.02z" fill="#379b6d"/><path d="M19.374 10.908c3.298-4.704-1.161-5.495-3.374-4.21v3.641a7.678 7.678 0 00.674.57c2.305 2.097 1.244 4.616-.674 7.427v1.483c.02-.004.035-.004.056-.008 1.846-1.881 3.304-4.331 3.318-8.903z" fill="#349363"/><circle cx="17.833" cy="8.665" r="1.624" fill="#c95c73"/><path d="M16.854 7.368c.122.386 1.555-.07 1.433-.455l-1.474-2.035z" fill="#d1d4d4"/><path fill="#dadddc" d="M15.078 11.424l.922-.477v-1.28l-.922 1.757z"/><path d="M16.245 9.2L16 9.666v1.28l1.29-.667c.291-.281-.754-1.362-1.045-1.08zm2.898.566l2.51-.086-2.088-1.356c-.388-.114-.81 1.329-.422 1.442z" fill="#d1d4d4"/><circle cx="17.833" cy="8.665" r=".948" fill="#a2d336"/></svg>
